web/packages/design/src/ResourceIcon/assets/scim-dark.svg

<svg width="72" height="72" viewBox="0 0 72 72" fill="none" xmlns="http://www.w3.org/2000/svg">
<path fill-rule="evenodd" clip-rule="evenodd" d="M6.83155 24.1325C3.83558 24.6251 1.59961 26.557 0.981665 29.1868C0.793902 29.9857 0.787563 32.0823 0.970236 32.9442C1.23522 34.1944 2.02479 35.394 3.07646 36.1445C4.20938 36.9529 5.24684 37.3578 8.98724 38.4511C10.9825 39.0344 12.0394 39.6191 12.3223 40.2962C12.4912 40.7004 12.4905 41.5916 12.3211 41.9876C11.8049 43.194 9.87726 43.6558 7.50712 43.1408C6.26057 42.87 5.02383 42.2439 3.57137 41.1484L2.77248 40.5459L1.41127 42.2719C0.662515 43.2211 0.0284395 44.0539 0.00212371 44.1225C-0.0616489 44.2886 1.32425 45.4002 2.35191 46.0072C4.69843 47.3932 7.55648 48.0472 10.2475 47.8137C14.8378 47.4155 17.434 44.5943 17.2248 40.2318C17.1225 38.0964 16.4017 36.7037 14.8177 35.581C13.6725 34.7691 12.6505 34.3503 9.62246 33.4519C7.25049 32.7481 6.45948 32.4116 6.03218 31.925C5.23397 31.0159 5.48887 29.5228 6.54342 28.9312C7.45343 28.4208 8.98445 28.4092 10.4578 28.9015C11.4473 29.232 12.1033 29.5557 13.2478 30.2777L14.0902 30.8092L14.3146 30.4542C14.4381 30.2589 15.0002 29.3933 15.5639 28.5305L16.5888 26.9619L16.3306 26.7538C15.2616 25.8922 13.5367 24.9577 12.3381 24.5909C10.6963 24.0884 8.30888 23.8897 6.83155 24.1325ZM29.1168 24.1024C25.0666 24.6545 21.7968 27.2234 20.2001 31.1077C18.9515 34.1452 18.948 37.9051 20.191 40.9876C21.6956 44.719 24.8928 47.2781 28.8005 47.8789C30.1844 48.0917 32.2396 48.0087 33.4867 47.6896C34.484 47.4344 35.2101 47.1389 35.9071 46.7045L36.3585 46.423L35.0981 44.4865L33.8375 42.5499L33.4899 42.7272C32.5238 43.2201 30.6576 43.428 29.4713 43.1748C28.2619 42.9167 27.4085 42.4368 26.4606 41.482C25.7701 40.7862 25.5552 40.4917 25.1912 39.7417C24.5635 38.4487 24.3298 37.401 24.3366 35.9098C24.3433 34.4539 24.5475 33.5737 25.1746 32.2997C25.946 30.7322 27.2968 29.521 28.8087 29.0409C30.2031 28.5981 31.5201 28.6327 32.9563 29.1502C33.3272 29.2839 33.6956 29.4128 33.7749 29.4367C33.8757 29.4671 34.2876 28.9139 35.1483 27.592L36.3777 25.7039L36.1567 25.4626C35.8151 25.0893 34.4288 24.482 33.4518 24.2777C32.4178 24.0614 30.1039 23.9678 29.1168 24.1024ZM39.5375 36.0059V48.0112H40.8517C42.9752 48.0112 43.7235 47.6773 44.3331 46.4574C44.5851 45.9529 44.6277 45.761 44.6277 45.1306C44.6277 44.7253 44.5772 44.142 44.5155 43.8344C44.4051 43.2852 44.4077 43.2712 44.6604 43.0539C44.8972 42.8501 45.108 42.4661 45.108 42.238C45.108 42.1862 44.9973 42.0332 44.862 41.8979C44.7268 41.7627 44.6296 41.644 44.6459 41.6342C45.6552 41.0313 45.7216 40.8715 45.3482 39.9439C44.9239 38.8901 45.0968 38.4902 46.2398 37.8812C47.1469 37.3978 47.4596 36.5596 47.0066 35.8251C46.8889 35.634 46.2991 34.8077 45.696 33.989C44.104 31.8274 44.0135 31.5567 44.5521 30.569C45.0363 29.6807 44.9982 29.1513 44.3039 27.1219C43.7566 25.5226 43.4915 24.94 43.0252 24.3126L42.7931 24.0005H41.1653H39.5375V36.0059ZM50.0061 36.0059V48.0112H52.4066H54.8071L54.8317 40.1406L54.8563 32.2699L57.8755 37.1173C59.5361 39.7833 60.9407 41.9499 60.9969 41.9319C61.0531 41.9139 62.4605 39.7145 64.1245 37.0444L67.1498 32.1897L67.1744 40.1005L67.199 48.0112H69.5995H72V36.0059V24.0005L69.3828 24.001L66.7657 24.0014L63.8914 28.8963C61.4696 33.0206 61 33.7651 60.9086 33.6259C60.8488 33.5351 59.5511 31.3322 58.0246 28.7306L55.2493 24.0005H52.6277H50.0061V36.0059Z" fill="white"/>
</svg>

<svg xmlns="http://www.w3.org/2000/svg" width="72" height="72" fill="none" viewBox="0 0 72 72"><path fill="#fff" fill-rule="evenodd" d="M6.832 24.133c-2.996.492-5.232 2.424-5.85 5.054-.188.799-.194 2.895-.012 3.757.265 1.25 1.055 2.45 2.106 3.2 1.133.809 2.17 1.214 5.911 2.307 1.995.583 3.052 1.168 3.335 1.845.17.404.169 1.296 0 1.692-.517 1.206-2.445 1.668-4.815 1.153-1.246-.271-2.483-.897-3.936-1.993l-.799-.602-1.36 1.726c-.75.95-1.384 1.782-1.41 1.85-.064.167 1.322 1.278 2.35 1.885 2.346 1.386 5.204 2.04 7.896 1.807 4.59-.398 7.186-3.22 6.977-7.582-.103-2.136-.823-3.528-2.407-4.651-1.146-.812-2.168-1.23-5.196-2.13-2.372-.703-3.163-1.04-3.59-1.526-.798-.91-.543-2.402.511-2.994.91-.51 2.441-.522 3.915-.03.99.331 1.645.655 2.79 1.377l.842.531.225-.355c.123-.195.685-1.06 1.249-1.924l1.025-1.568-.258-.208c-1.07-.862-2.794-1.796-3.993-2.163-1.642-.503-4.03-.701-5.506-.459m22.285-.03c-4.05.551-7.32 3.12-8.917 7.005-1.248 3.037-1.252 6.797-.009 9.88 1.505 3.731 4.702 6.29 8.61 6.89 1.383.214 3.439.13 4.686-.188.997-.256 1.723-.551 2.42-.985l.452-.282-1.26-1.937-1.261-1.936-.348.177c-.966.493-2.832.701-4.019.448-1.21-.258-2.062-.738-3.01-1.693-.69-.696-.906-.99-1.27-1.74-.627-1.293-.861-2.341-.854-3.832.006-1.456.21-2.336.838-3.61.771-1.568 2.122-2.779 3.634-3.26 1.394-.442 2.711-.407 4.147.11.371.134.74.263.819.287.1.03.513-.523 1.373-1.845l1.23-1.888-.221-.241c-.342-.374-1.728-.981-2.705-1.185-1.034-.217-3.348-.31-4.335-.176m10.42 11.903V48.01h1.315c2.123 0 2.872-.334 3.481-1.554.252-.504.295-.696.295-1.326 0-.406-.05-.989-.112-1.297-.11-.549-.108-.563.144-.78.237-.204.448-.588.448-.816 0-.052-.11-.205-.246-.34-.135-.135-.232-.254-.216-.264 1.01-.603 1.076-.763.702-1.69-.424-1.054-.251-1.454.892-2.063.907-.483 1.22-1.321.767-2.056-.118-.191-.708-1.017-1.311-1.836-1.592-2.162-1.682-2.432-1.144-3.42.484-.888.446-1.418-.248-3.447-.547-1.6-.812-2.182-1.279-2.81L42.793 24h-3.255zm10.47 0V48.01h4.8l.025-7.87.024-7.871 3.02 4.847c1.66 2.666 3.065 4.833 3.12 4.815.057-.018 1.465-2.218 3.128-4.888l3.026-4.854.024 7.91.025 7.911H72V24l-2.617.001h-2.617l-2.875 4.895c-2.421 4.125-2.891 4.87-2.982 4.73-.06-.09-1.358-2.294-2.884-4.895L55.249 24h-5.243z" clip-rule="evenodd"/></svg>
